X:1
T:Untitled
K:C
L:1/8
C D E G A G E | C D E G A G E | C D E G A G E | C D E G A G E |
G G G G A A A A | G G G G F F F F | E E E E G G G G | G G G G A A A A |
C D E G A G E | C D E G A G E | C D E G A G E | C D E G A G E |
G G G G A A A A | G G G G F F F F | E E E E G G G G | G G G G A A A A |
F E D E F G A G | F E D E F G A G | F E D E F G A G | F E D E F G A G |
G G G G A A A A | G G G G F F F F | E E E E G G G G | G G G G A A A A |
